packages/design-system/src/icons/assets/btn_heart_default_24.svg

<svg width="24" height="25" viewBox="0 0 24 25" fill="none" xmlns="http://www.w3.org/2000/svg">
<path d="M23.0091 6.18207C22.65 5.35074 22.1323 4.5974 21.485 3.96421C20.8371 3.32914 20.0733 2.82446 19.235 2.47761C18.3657 2.11652 17.4334 1.93169 16.4921 1.93386C15.1716 1.93386 13.8832 2.29546 12.7635 2.9785C12.4957 3.14189 12.2412 3.32136 12.0001 3.51689C11.7591 3.32136 11.5046 3.14189 11.2367 2.9785C10.1171 2.29546 8.82871 1.93386 7.50818 1.93386C6.55728 1.93386 5.63585 2.116 4.76532 2.47761C3.92425 2.82582 3.16621 3.32671 2.51532 3.96421C1.86709 4.59668 1.34928 5.35021 0.991211 6.18207C0.61889 7.04725 0.428711 7.966 0.428711 8.91153C0.428711 9.8035 0.610854 10.733 0.972461 11.6785C1.27514 12.4687 1.70907 13.2883 2.26353 14.116C3.1421 15.4258 4.35014 16.7919 5.85014 18.1767C8.33585 20.4722 10.7975 22.058 10.9019 22.1222L11.5367 22.5294C11.818 22.7089 12.1796 22.7089 12.4609 22.5294L13.0957 22.1222C13.2001 22.0553 15.6591 20.4722 18.1475 18.1767C19.6475 16.7919 20.8555 15.4258 21.7341 14.116C22.2885 13.2883 22.7251 12.4687 23.0251 11.6785C23.3867 10.733 23.5689 9.8035 23.5689 8.91153C23.5716 7.966 23.3814 7.04725 23.0091 6.18207ZM12.0001 20.4106C12.0001 20.4106 2.46443 14.3008 2.46443 8.91153C2.46443 6.18207 4.72246 3.96957 7.50818 3.96957C9.46621 3.96957 11.1644 5.06243 12.0001 6.65886C12.8359 5.06243 14.5341 3.96957 16.4921 3.96957C19.2778 3.96957 21.5359 6.18207 21.5359 8.91153C21.5359 14.3008 12.0001 20.4106 12.0001 20.4106Z" fill="#93959D"/>
</svg>

<svg xmlns="http://www.w3.org/2000/svg" width="24" height="25" fill="none"><path fill="#93959D" d="M23.01 6.182a7 7 0 0 0-1.525-2.218 7.1 7.1 0 0 0-4.993-2.03A7.15 7.15 0 0 0 12 3.517a7.15 7.15 0 0 0-4.492-1.583 7.1 7.1 0 0 0-4.993 2.03A6.92 6.92 0 0 0 .43 8.912c0 .891.182 1.821.543 2.766.303.79.737 1.61 1.292 2.438.878 1.31 2.086 2.676 3.586 4.06 2.486 2.296 4.948 3.882 5.052 3.946l.635.407a.86.86 0 0 0 .924 0l.635-.407a40.6 40.6 0 0 0 5.052-3.945c1.5-1.385 2.707-2.751 3.586-4.061.554-.828.991-1.647 1.291-2.437.362-.946.544-1.876.544-2.767a6.8 6.8 0 0 0-.56-2.73M12 20.411S2.464 14.3 2.464 8.91c0-2.729 2.258-4.941 5.044-4.941A5.06 5.06 0 0 1 12 6.659a5.06 5.06 0 0 1 4.492-2.69c2.786 0 5.044 2.213 5.044 4.943C21.536 14.3 12 20.41 12 20.41"/></svg>
